X:5001
T:Earl Grey
T:Chicken Pecking
R:Reel
C:Trad.
S:Pete Coe
O:England, Northumberland
M:4/4
L:1/4
Q:1/4=160
K:G
"G"G>AGD|"Em"EGDB|"C"cAc/B/A/G/|"D"FAAB/A/|
"G"G>AGD|"Em"EGDB|"C"cede/f/|1 "G"gGG2:|2 "G"gGG ((3d/e/f/)|:
"C"gGfG|eGdG|cA c/B/A/G/|"D"FAA((3d/e/f/)|
"C"gGfG|eGdG|ced e/f/|1 "G"gGG ((3d/e/f/):|2 "G"gGG2|]

